logo.svg

<svg fill="none" height="151" viewBox="0 0 241 151" width="241" xmlns="http://www.w3.org/2000/svg"><g fill="#f9f9f9"><path d="m162.129.0573711h-10.8c-.332 0-.6.2679349-.6.5999349v5.400064 12.00003 12 12 9c0 1.6573-1.344 3-3 3h-9-9.7-2.3-11.414c-.33 0-.6.2679-.6.5999v10.8001c0 .332.27.6.6.6h11.414 2.3 9.7 12 6c3.313 0 6-2.6867 6-6v-6-12-12-12-12.00003-5.400064c0-.332-.268-.5999349-.6-.5999349z"/><path d="m240.129 54.0574h-5.4-12-12-12-9c-1.658 0-3-1.3427-3-3v-9-12-6-5.4001c0-.332-.268-.5999-.6-.5999h-10.8c-.332 0-.6.2679-.6.5999v5.4001 6 12 12 6c0 3.3133 2.686 6 6 6h6 12 12 12 12 5.4c.332 0 .6-.268.6-.6v-10.8001c0-.332-.268-.5999-.6-.5999z"/><path d="m48.7119 54.0576h1.4533 10.5627 12 12 12 5.4011c.331 0 .599.268.599.6v10.8c0 .3307-.268.6-.599.6h-5.4011-12-12-12-10.5627-1.4373-.0134c-19.7053 0-35.7026 15.8347-35.9866 35.4724v.528h-.0134v12h.0134v12 12 5.4c0 .33-.268.6-.5986.6h-10.8014c-.330665 0-.600015-.27-.600015-.6v-5.4-12-12h-.013346v-12h.013346v-.522c.042667-3.9584.554665-7.8051 1.499995-11.4784 1.096-4.26 2.77471-8.284 4.92538-12 1.60267-2.7693 3.47064-5.364 5.57464-7.748 1.3293-1.504 2.7493-2.924 4.2546-4.252 2.384-2.1027 4.9774-3.9694 7.7454-5.5707 3.716-2.1493 7.74-3.8253 12-4.92 3.8306-.9853 7.8453-1.5093 11.984-1.5093h.016z"/><path d="m222.129 78.0574h-5.387-.013-5.987-12-12-6c-3.313 0-6 2.6867-6 6v6 11.9996 12 12 12 5.4c0 .332.268.6.6.6h10.8c.331 0 .6-.268.6-.6v-5.4-12-12-12-9.1317c.071-1.5946 1.375-2.8679 2.987-2.8679h9.013 12 5.987.013 5.387c.332 0 .6-.268.6-.6v-10.8c0-.332-.268-.6-.6-.6z"/><path d="m156.715 78.0574h-6-12-12-12-12-5.3998c-.3306 0-.6.268-.6.6v10.8c0 .332.2694.6.6.6h5.3998 12 12 12 9.014c1.61 0 2.916 1.2733 2.986 2.8666v9.133 12 6 5.4c0 .332.27.6.6.6h10.8c.331 0 .6-.268.6-.6v-5.4-6-12-11.9996-6c0-3.3133-2.686-6-6-6z"/><path d="m36.7152 123.871v-9.814-12c0-6.6255 5.3694-11.9962 11.996-11.9989h.004l12-.0013h12 11.4001c.332 0 .5999-.2679.5999-.5986v-10.8014c0-.3306-.2679-.6-.5999-.6h-11.4001-12-12c-4.3733 0-8.4693 1.176-12 3.22-3.64 2.1067-6.6747 5.14-8.7813 8.7813-2.044 3.5307-3.2187 7.6267-3.2187 11.9999v11.999 9.814l.0134 2.187c0 4.372 1.176 8.468 3.2186 12 2.104 3.636 5.1333 6.667 8.768 8.773.004.003.0094.006.0134.008 3.5266 2.04 7.6186 3.215 11.9866 3.218v.001h.0134c-.0014 0-.0027 0-.004-.001h11.9906 12 11.4001c.332 0 .5999-.268.5999-.599v-10.801c0-.331-.2679-.6-.5999-.6h-11.4001-12-12c-6.6267 0-12-5.372-12-12v.001z"/></g></svg>

<svg width="241" height="151" viewBox="0 0 241 151" fill="none" xmlns="http://www.w3.org/2000/svg">
<path d="M162.129 0.0573711H151.329C150.997 0.0573711 150.729 0.325306 150.729 0.657306V6.05737V18.0574V30.0574V42.0574V51.0574C150.729 52.7147 149.385 54.0574 147.729 54.0574H138.729H129.029H126.729H115.315C114.985 54.0574 114.715 54.3253 114.715 54.6573V65.4574C114.715 65.7894 114.985 66.0574 115.315 66.0574H126.729H129.029H138.729H150.729H156.729C160.042 66.0574 162.729 63.3707 162.729 60.0574V54.0574V42.0574V30.0574V18.0574V6.05737V0.657306C162.729 0.325306 162.461 0.0573711 162.129 0.0573711Z" fill="#f9f9f9"/>
<path d="M240.129 54.0574H234.729H222.729H210.729H198.729H189.729C188.071 54.0574 186.729 52.7147 186.729 51.0574V42.0574V30.0574V24.0574V18.6573C186.729 18.3253 186.461 18.0574 186.129 18.0574H175.329C174.997 18.0574 174.729 18.3253 174.729 18.6573V24.0574V30.0574V42.0574V54.0574V60.0574C174.729 63.3707 177.415 66.0574 180.729 66.0574H186.729H198.729H210.729H222.729H234.729H240.129C240.461 66.0574 240.729 65.7894 240.729 65.4574V54.6573C240.729 54.3253 240.461 54.0574 240.129 54.0574Z" fill="#f9f9f9"/>
<path d="M48.7119 54.0576H50.1652H60.7279H72.7279H84.7279H96.7279H102.129C102.46 54.0576 102.728 54.3256 102.728 54.6576V65.4576C102.728 65.7883 102.46 66.0576 102.129 66.0576H96.7279H84.7279H72.7279H60.7279H50.1652H48.7279H48.7145C29.0092 66.0576 13.0119 81.8923 12.7279 101.53V102.058H12.7145V114.058H12.7279V126.058V138.058V143.458C12.7279 143.788 12.4599 144.058 12.1293 144.058H1.3279C0.997235 144.058 0.727885 143.788 0.727885 143.458V138.058V126.058V114.058H0.714539V102.058H0.727885V101.536C0.770552 97.5776 1.28255 93.7309 2.22788 90.0576C3.32388 85.7976 5.00259 81.7736 7.15326 78.0576C8.75593 75.2883 10.6239 72.6936 12.7279 70.3096C14.0572 68.8056 15.4772 67.3856 16.9825 66.0576C19.3665 63.9549 21.9599 62.0882 24.7279 60.4869C28.4439 58.3376 32.4679 56.6616 36.7279 55.5669C40.5585 54.5816 44.5732 54.0576 48.7119 54.0576H48.7279Z" fill="#f9f9f9"/>
<path d="M222.129 78.0574H216.742H216.729H210.742H198.742H186.742H180.742C177.429 78.0574 174.742 80.7441 174.742 84.0574V90.0574V102.057V114.057V126.057V138.057V143.457C174.742 143.789 175.01 144.057 175.342 144.057H186.142C186.473 144.057 186.742 143.789 186.742 143.457V138.057V126.057V114.057V102.057V92.9253C186.813 91.3307 188.117 90.0574 189.729 90.0574H198.742H210.742H216.729H216.742H222.129C222.461 90.0574 222.729 89.7894 222.729 89.4574V78.6574C222.729 78.3254 222.461 78.0574 222.129 78.0574Z" fill="#f9f9f9"/>
<path d="M156.715 78.0574H150.715H138.715H126.715H114.715H102.715H97.3152C96.9846 78.0574 96.7152 78.3254 96.7152 78.6574V89.4574C96.7152 89.7894 96.9846 90.0574 97.3152 90.0574H102.715H114.715H126.715H138.715H147.729C149.339 90.0574 150.645 91.3307 150.715 92.924V102.057V114.057V120.057V125.457C150.715 125.789 150.985 126.057 151.315 126.057H162.115C162.446 126.057 162.715 125.789 162.715 125.457V120.057V114.057V102.057V90.0574V84.0574C162.715 80.7441 160.029 78.0574 156.715 78.0574Z" fill="#f9f9f9"/>
<path d="M36.7152 123.871V114.057V102.057C36.7152 95.4315 42.0846 90.0608 48.7112 90.0581H48.7152L60.7152 90.0568H72.7152H84.1153C84.4473 90.0568 84.7152 89.7889 84.7152 89.4582V78.6568C84.7152 78.3262 84.4473 78.0568 84.1153 78.0568H72.7152H60.7152H48.7152C44.3419 78.0568 40.2459 79.2328 36.7152 81.2768C33.0752 83.3835 30.0405 86.4168 27.9339 90.0581C25.8899 93.5888 24.7152 97.6848 24.7152 102.058V114.057V123.871L24.7286 126.058C24.7286 130.43 25.9046 134.526 27.9472 138.058C30.0512 141.694 33.0805 144.725 36.7152 146.831C36.7192 146.834 36.7246 146.837 36.7286 146.839C40.2552 148.879 44.3472 150.054 48.7152 150.057V150.058H48.7286C48.7272 150.058 48.7259 150.058 48.7246 150.057H60.7152H72.7152H84.1153C84.4473 150.057 84.7152 149.789 84.7152 149.458V138.657C84.7152 138.326 84.4473 138.057 84.1153 138.057H72.7152H60.7152H48.7152C42.0885 138.057 36.7152 132.685 36.7152 126.057V126.058V123.871Z" fill="#f9f9f9"/>
</svg>
